Numix-GalliumOS/24/actions/stock_mail-open-multiple.svg

<?xml version="1.0" encoding="UTF-8" standalone="no"?>
<svg
   xmlns:dc="http://purl.org/dc/elements/1.1/"
   xmlns:cc="http://creativecommons.org/ns#"
   xmlns:rdf="http://www.w3.org/1999/02/22-rdf-syntax-ns#"
   xmlns:svg="http://www.w3.org/2000/svg"
   xmlns="http://www.w3.org/2000/svg"
   xmlns:sodipodi="http://sodipodi.sourceforge.net/DTD/sodipodi-0.dtd"
   xmlns:inkscape="http://www.inkscape.org/namespaces/inkscape"
   width="24"
   height="24"
   viewBox="0 0 24 24"
   id="svg2"
   version="1.1"
   inkscape:version="0.91 r"
   sodipodi:docname="stock_mail-open-multiple.svg">
  <metadata
     id="metadata22">
    <rdf:RDF>
      <cc:Work
         rdf:about="">
        <dc:format>image/svg+xml</dc:format>
        <dc:type
           rdf:resource="http://purl.org/dc/dcmitype/StillImage" />
        <dc:title></dc:title>
      </cc:Work>
    </rdf:RDF>
  </metadata>
  <defs
     id="defs20" />
  <sodipodi:namedview
     pagecolor="#ffffff"
     bordercolor="#666666"
     borderopacity="1"
     objecttolerance="10"
     gridtolerance="10"
     guidetolerance="10"
     inkscape:pageopacity="0"
     inkscape:pageshadow="2"
     inkscape:window-width="1920"
     inkscape:window-height="1056"
     id="namedview18"
     showgrid="false"
     inkscape:zoom="10.727273"
     inkscape:cx="-1.1284469"
     inkscape:cy="10.906033"
     inkscape:window-x="0"
     inkscape:window-y="24"
     inkscape:window-maximized="1"
     inkscape:current-layer="svg2" />
  <g
     style="fill:#268bd2"
     id="g4-9-6"
     transform="matrix(0.81818182,0,0,0.81249997,0.99999998,-3.874999)">
    <path
       d="M 2,6 C -7.2055846e-4,6 0,6 0,8 l 0,12 c 0,2 0,2 2,2 l 18,0 c 2,0 2,0 2,-2 0,-4.425781 0,-9.441406 0,-12 0,-2 0,-2 -2,-2 z"
       id="path6-4-2"
       inkscape:connector-curvature="0" />
    <path
       d="m 2,22 18,0 c 2,0 2,0 2,-2 L 22,8 0,20 c 0,2 0,2 2,2 z"
       id="path8-4-8"
       inkscape:connector-curvature="0" />
  </g>
  <path
     style="fill-opacity:0.1"
     d="m 2.636364,14 14.727273,0 C 19,14 19,14 19,12.375001 l 0,-9.75 -18.00000002,9.75 C 0.99999998,14 0.99999998,14 2.636364,14 Z"
     id="path10-9-5"
     inkscape:connector-curvature="0" />
  <path
     style="fill:#268bd2"
     d="M 17.363637,14 2.636364,14 C 0.99999998,14 0.99999998,14 0.99999998,12.375001 l 0,-9.75 L 19,12.375001 C 19,14 19,14 17.363637,14 Z"
     id="path12-2-2"
     inkscape:connector-curvature="0" />
  <path
     style="fill:#ffffff;fill-opacity:0.10199998"
     d="M 0.99999998,2.625001 10,7.5 19,2.625001 C 19,1 19,1 17.363637,1 L 2.636364,1 C 0.99999998,1 0.99999998,1 0.99999998,2.625001 Z"
     id="path14-8-7"
     inkscape:connector-curvature="0" />
  <path
     inkscape:connector-curvature="0"
     style="fill:#268bd2"
     d="m 6.636364,23 14.727272,0 C 23,23 23,23 23,21.363636 L 23,10.727273 14,4.9999998 5,10.727273 5,21.363636 C 5,23 5,23 6.636364,23 Z"
     id="path4147" />
  <path
     inkscape:connector-curvature="0"
     style="fill-opacity:0.10199998"
     d="m 6.636364,23 14.727272,0 C 23,23 23,23 23,21.363636 L 23,10.727273 14,4.9999998 5,10.727273 5,21.363636 C 5,23 5,23 6.636364,23 Z"
     id="path4149" />
  <path
     inkscape:connector-curvature="0"
     style="fill:#ffffff"
     d="m 7.454545,7.4545452 0,13.0909098 13.09091,0 0,-13.0909098 z"
     id="path4151" />
  <g
     style="fill:#268bd2"
     id="g4153"
     transform="matrix(0.81818182,0,0,0.81818182,5,4.9999998)">
    <path
       inkscape:connector-curvature="0"
       d="m 2,22 18,0 c 2,0 2,0 2,-2 L 22,8 0,20 c 0,2 0,2 2,2 z"
       id="path4155" />
    <path
       inkscape:connector-curvature="0"
       d="M 20,22 2,22 C 0,22 0,22 0,20 L 0,8 22,20 c 0,2 0,2 -2,2 z"
       id="path4157" />
  </g>
  <path
     inkscape:connector-curvature="0"
     style="fill:#ffffff;fill-opacity:0.10199998"
     d="M 21.363636,23 6.636364,23 C 5,23 5,23 5,21.363636 l 0,-9.818182 18,9.818182 C 23,23 23,23 21.363636,23 Z"
     id="path4159" />
</svg>

<svg xmlns="http://www.w3.org/2000/svg" viewBox="0 0 24 24">
 <g transform="matrix(0.81818182,0,0,0.81249997,0.99999998,-3.874999)" style="fill:#268bd2">
  <path d="m 2 6 c -2 0 -2 0 -2 2 l 0 12 c 0 2 0 2 2 2 l 18 0 c 2 0 2 0 2 -2 0 -4.426 0 -9.441 0 -12 0 -2 0 -2 -2 -2 z"/>
  <path d="m 2,22 18,0 c 2,0 2,0 2,-2 L 22,8 0,20 c 0,2 0,2 2,2 z"/>
 </g>
 <path d="m 2.636 14 14.727 0 c 1.636 0 1.636 0 1.636 -1.625 l 0 -9.75 -18 9.75 c 0 1.625 0 1.625 1.636 1.625" style="fill-opacity:0.1"/>
 <path d="m 17.364 14 -14.727 0 c -1.636 0 -1.636 0 -1.636 -1.625 l 0 -9.75 l 18 9.75 c 0 1.625 0 1.625 -1.636 1.625" style="fill:#268bd2"/>
 <path d="m 1 2.625 9 4.875 9 -4.875 c 0 -1.625 0 -1.625 -1.636 -1.625 l -14.727 0 c -1.636 0 -1.636 0 -1.636 1.625" style="fill:#fff;fill-opacity:0.102"/>
 <path d="m 6.636 23 14.727 0 c 1.636 0 1.636 0 1.636 -1.636 l 0 -10.636 -9 -5.727 -9 5.727 0 10.636 c 0 1.636 0 1.636 1.636 1.636" style="fill:#268bd2"/>
 <path d="m 6.636 23 14.727 0 c 1.636 0 1.636 0 1.636 -1.636 l 0 -10.636 -9 -5.727 -9 5.727 0 10.636 c 0 1.636 0 1.636 1.636 1.636" style="fill-opacity:0.102"/>
 <path d="m 7.455 7.455 0 13.09 13.09 0 0 -13.09 z" style="fill:#fff"/>
 <g transform="matrix(0.81818182,0,0,0.81818182,5,4.9999998)" style="fill:#268bd2">
  <path d="m 2,22 18,0 c 2,0 2,0 2,-2 L 22,8 0,20 c 0,2 0,2 2,2 z"/>
  <path d="M 20,22 2,22 C 0,22 0,22 0,20 L 0,8 22,20 c 0,2 0,2 -2,2 z"/>
 </g>
 <path d="M 21.363636,23 6.636364,23 C 5,23 5,23 5,21.363636 l 0,-9.818182 18,9.818182 C 23,23 23,23 21.363636,23 Z" style="fill:#fff;fill-opacity:0.102"/>
</svg>
